X:1
T:The Ranting Dog
M:2/4
L:1/16
K:C
 z4 z2E-D| C2c2 c2B-A| G2G2 E4| D2_B2 B2A-G| F2F2 D4| C2c2d-cB-A| G2G2 E3 E|\
F-ED-C B,2D-F| E2C2 C4|G-FE-D C2E2| G2G2 E4|F-ED-C _B,2D2| F2F2 D4|\
G-FE-D C2E2| G2G2 e3 G|F-ED-CB,-CD-F| E2C2 C2 z2|
